symbols/web/pause_circle/materialsymbolsrounded/pause_circle_wght100fill1_20px.svg

<svg xmlns="http://www.w3.org/2000/svg" height="20" width="20"><path d="M8.667 12.792q.125 0 .229-.104.104-.105.104-.23V7.5q0-.104-.094-.208t-.239-.104q-.125 0-.229.104-.105.104-.105.229v4.958q0 .104.094.209.094.104.24.104Zm2.687 0q.125 0 .229-.104.105-.105.105-.23V7.5q0-.104-.094-.208t-.24-.104q-.125 0-.229.104-.104.104-.104.229v4.958q0 .104.094.209.093.104.239.104ZM10 17.25q-1.5 0-2.823-.573t-2.302-1.552q-.979-.979-1.552-2.302Q2.75 11.5 2.75 10t.573-2.823q.573-1.323 1.552-2.302.979-.979 2.302-1.552Q8.5 2.75 10 2.75t2.823.573q1.323.573 2.302 1.552.979.979 1.552 2.302Q17.25 8.5 17.25 10t-.573 2.823q-.573 1.323-1.552 2.302-.979.979-2.302 1.552-1.323.573-2.823.573Z"/></svg>

<svg xmlns="http://www.w3.org/2000/svg" height="20" width="20"><path d="M8.667 12.792Q8.792 12.792 8.896 12.688Q9 12.583 9 12.458V7.5Q9 7.396 8.906 7.292Q8.812 7.188 8.667 7.188Q8.542 7.188 8.438 7.292Q8.333 7.396 8.333 7.521V12.479Q8.333 12.583 8.427 12.688Q8.521 12.792 8.667 12.792ZM11.354 12.792Q11.479 12.792 11.583 12.688Q11.688 12.583 11.688 12.458V7.5Q11.688 7.396 11.594 7.292Q11.5 7.188 11.354 7.188Q11.229 7.188 11.125 7.292Q11.021 7.396 11.021 7.521V12.479Q11.021 12.583 11.115 12.688Q11.208 12.792 11.354 12.792ZM10 17.25Q8.5 17.25 7.177 16.677Q5.854 16.104 4.875 15.125Q3.896 14.146 3.323 12.823Q2.75 11.5 2.75 10Q2.75 8.5 3.323 7.177Q3.896 5.854 4.875 4.875Q5.854 3.896 7.177 3.323Q8.5 2.75 10 2.75Q11.5 2.75 12.823 3.323Q14.146 3.896 15.125 4.875Q16.104 5.854 16.677 7.177Q17.25 8.5 17.25 10Q17.25 11.5 16.677 12.823Q16.104 14.146 15.125 15.125Q14.146 16.104 12.823 16.677Q11.5 17.25 10 17.25Z"/></svg>
